X:1
T:Title
%%score { 1 | 2 }
L:1/8
Q:1/4=100
M:4/4
K:F
V:1 treble nm="Grand Piano"
V:2 bass 
V:1
 A3 G GFFA | [Ac]4 A4 | c2 d2 c2 A2 | [EG]8 | A3 G GFAc | [DFc]4 [DFB]4 | %6
w: Robert~Lowry * * * * *||||||
 [CFA]2 [B,EG]2 [A,F]2 [G,CE]2 | [A,CF]8 | [EG]3 [FA] [GB]4 | A3 B c4 | [Fd]3 [Fd] [Fc]2 [FA]2 | %11
w: |||||
 [GB]2 [FA]2 [EG]4 | A3 G GFAc | [DFc]4 [DFB]4 | [FA]2 [EG]2 [Ec]3 [CE] | [A,CF]8 |] %16
w: |||||
V:2
 [F,CF]3 [F,B,C] [F,B,C][F,A,C][F,A,C][F,CF] | [F,C]4 [F,CF]4 | %2
 [F,A,F]2 [F,B,F]2 [F,A,F]2 [F,CF]2 | [C,C]8 | [F,CF]3 [F,B,C] [F,B,C][F,A,C][F,CF][F,_EF] | %5
 B,,4 B,,4 | C,2 C,2 C,2 C,2 | F,8 | [C,C]3 [C,C] [C,C]4 | [F,CF]3 [F,G,F] [F,A,F]4 | %10
 [B,,B,]3 [B,,B,] [F,A,]2 [F,C]2 | [E,C]2 [F,C]2 [C,C]4 | %12
 [F,CF]3 [F,B,C] [F,B,C][F,A,C][F,CF][F,_EF] | B,,4 B,,4 | [C,C]2 [C,C]2 [C,G,]3 [C,B,] | %15
 [F,,F,]8 |] %16

